X: 1
T: MY WIFE'S A WANTON WEE THING
O: Kerr's 2nd
R: jig
N: "Scotch Jig"
Z: 2007 John Chambers <jc:trillian.mit.edu>
B: Kerr 2nd (c.1880) p.211 #318
M: 6/8
L: 1/8
K: D
f/e/ \
| d2A dfe | d3 A2B | =cdc cGE | =c3 E2^c \
| d2A dfe | d3 A2G | FDF ECE | D3- D2 :|
F/G/ \
| ABA FDF | A3 {B}=c3 | G=cG E=CE | {F}G3 B3 \
| AdA FDF | A3 {f}g3 | fdf ece | d3- d2 ||
F/G/ \
| ABA FDF | AdA FDF | GAG E=CE | G=cG E=CE \
| ABA FDF | ABA a2g | fdf ece | d3- d2 |]
